X:1
T:Title
%%score { ( 1 4 ) | ( 2 3 ) }
L:1/8
M:2/4
K:Eb
V:1 treble nm="Grand Piano"
V:4 treble 
V:2 bass 
V:3 bass 
V:1
 z2[Q:1/4=100] [GB]>A | GG GG | [GB]G E>G | F4- | F2 z2 | [DA][DA] [DA][DA] | [Dc][EB] [DF]>[FA] | %7
 G4- | G2 z2 | [GB][GB] [GB][GB] | [FA]G F>E | c4- | c2 z2 | [EB][E=A] [EB][Ee] | %14
 [EB][EG] [DF]>[DG] | z2 E2 |[M:3/8] E2 z |[M:1/8] [GB] |[M:2/4] cc c[Ad] | [Ge] [GB]2 G | FF G=A | %21
[M:3/8] [DB]3 |[M:1/8] B |[M:2/4] cc c[Ad] | [Ge] [B,GB]2 [B,EG] | [B,GB][B,EG] [A,DF][B,DG] | %26
[M:3/8] [G,E]3 |] %27
V:2
 z2 z z/ F/ | [E,B,E][E,B,E] [E,B,E][E,B,E] | [E,B,][E,B,E] [G,B,]>[E,B,E] | %3
 [B,,B,]2 [B,,B,]>[B,,B,] | [B,,B,]2 [B,,B,]2 | [B,,F,][B,,F,] [B,,F,][B,,F,] | %6
 [B,,A,][B,,G,] [B,,B,]>[B,,B,] | [E,B,E]2 [E,B,]>[E,B,] | [E,B,]2 E>F | [E,E][E,E] [E,E][E,E] | %10
 [E,E][E,B,E] [F,B,D]>[G,B,] | [A,E]2 [A,,A,]>[A,,A,] | [A,,A,]2 [A,,A,]2 | %13
 [C,G,][B,,_G,] [B,,=G,][B,,G,] | [B,,G,][B,,B,] [B,,A,]>[B,,B,] | [E,G,]2 [E,G,]>E, | %16
[M:3/8] [E,G,]2 z |[M:1/8] [E,E] |[M:2/4][K:treble] [A,EA][A,EA] [A,EA][K:bass][F,B,] | %19
 [E,B,] [E,B,]2 [E,B,E] | [F,B,D][F,=A,C] [F,B,E][F,CE] |[M:3/8] [B,,B,]3 |[M:1/8] [E,G,E] | %23
[M:2/4][K:treble] [A,E][A,CA] [A,EA][K:bass][F,B,] | [E,B,] E,2 E, | B,,B,, B,,B,, |[M:3/8] E,3 |] %27
V:3
 z2 [E,B,]2 | x4 | x4 | x4 | x4 | x4 | x4 | x4 | z2 [E,B,]2 | x4 | x4 | x4 | x4 | x4 | x4 | x4 | %16
[M:3/8] x3 |[M:1/8] x |[M:2/4][K:treble] x3[K:bass] x | x4 | x4 |[M:3/8] x3 |[M:1/8] x | %23
[M:2/4][K:treble] x3[K:bass] x | x4 | x4 |[M:3/8] x3 |] %27
V:4
 x4 | x4 | x4 | D2 D>D | D2 [DF]>[EG] | x4 | x4 | z2 E>E | E2 G>A | x4 | x4 | z2 E>E | E2 [Ec]2 | %13
 x4 | x4 | E2 z z/ G,/ |[M:3/8] x3 |[M:1/8] x |[M:2/4] x4 | x4 | x4 |[M:3/8] x3 |[M:1/8] x | %23
[M:2/4] x4 | x4 | x4 |[M:3/8] x3 |] %27

